icons/midnadark/actions/24/filename-group-length.svg

<?xml version="1.0" encoding="UTF-8" standalone="no"?>
<!-- Created with Inkscape (http://www.inkscape.org/) -->

<svg
   xmlns:osb="http://www.openswatchbook.org/uri/2009/osb"
   xmlns:dc="http://purl.org/dc/elements/1.1/"
   xmlns:cc="http://creativecommons.org/ns#"
   xmlns:rdf="http://www.w3.org/1999/02/22-rdf-syntax-ns#"
   xmlns:svg="http://www.w3.org/2000/svg"
   xmlns="http://www.w3.org/2000/svg"
   xmlns:sodipodi="http://sodipodi.sourceforge.net/DTD/sodipodi-0.dtd"
   xmlns:inkscape="http://www.inkscape.org/namespaces/inkscape"
   width="22"
   height="22"
   id="svg3869"
   version="1.1"
   inkscape:version="0.91 r13725"
   sodipodi:docname="filename-group-length.svg">
  <defs
     id="defs3871">
    <inkscape:perspective
       id="perspective4090"
       inkscape:persp3d-origin="12 : 8 : 1"
       inkscape:vp_z="24 : 12 : 1"
       inkscape:vp_y="0 : 1000 : 0"
       inkscape:vp_x="0 : 12 : 1"
       sodipodi:type="inkscape:persp3d" />
    <inkscape:perspective
       sodipodi:type="inkscape:persp3d"
       inkscape:vp_x="0 : 12 : 1"
       inkscape:vp_y="0 : 1000 : 0"
       inkscape:vp_z="24 : 12 : 1"
       inkscape:persp3d-origin="12 : 8 : 1"
       id="perspective4090-9" />
    <linearGradient
       id="linearGradient3257">
      <stop
         offset="0"
         style="stop-color:#a50000;stop-opacity:1"
         id="stop3259" />
      <stop
         offset="1"
         style="stop-color:#e73800;stop-opacity:1"
         id="stop3261" />
    </linearGradient>
    <linearGradient
       id="linearGradient4066">
      <stop
         offset="0"
         style="stop-color:#dbc9ee;stop-opacity:1"
         id="stop4068" />
      <stop
         offset="1"
         style="stop-color:#faf7fd;stop-opacity:1"
         id="stop4070" />
    </linearGradient>
    <linearGradient
       id="linearGradient3843-5">
      <stop
         id="stop3845-0"
         style="stop-color:#5a2c8b;stop-opacity:1"
         offset="0" />
      <stop
         id="stop3847-4"
         style="stop-color:#9d59cf;stop-opacity:1"
         offset="1" />
    </linearGradient>
    <linearGradient
       osb:paint="gradient"
       id="linearGradient4207">
      <stop
         id="stop3371"
         offset="0"
         style="stop-color:#3498db;stop-opacity:1;" />
      <stop
         id="stop3373"
         offset="1"
         style="stop-color:#3498db;stop-opacity:0;" />
    </linearGradient>
  </defs>
  <sodipodi:namedview
     id="base"
     pagecolor="#ffffff"
     bordercolor="#666666"
     borderopacity="1.0"
     inkscape:pageopacity="0.0"
     inkscape:pageshadow="2"
     inkscape:zoom="11.313708"
     inkscape:cx="-29.791179"
     inkscape:cy="11.577036"
     inkscape:document-units="px"
     inkscape:current-layer="g4486-5"
     showgrid="true"
     fit-margin-top="0"
     fit-margin-left="0"
     fit-margin-right="0"
     fit-margin-bottom="0"
     inkscape:window-width="1366"
     inkscape:window-height="633"
     inkscape:window-x="0"
     inkscape:window-y="33"
     inkscape:window-maximized="1"
     inkscape:showpageshadow="false"
     inkscape:snap-bbox="true"
     inkscape:object-nodes="true"
     showguides="true"
     inkscape:guide-bbox="true">
    <inkscape:grid
       type="xygrid"
       id="grid4132" />
    <sodipodi:guide
       position="2,20.000017"
       orientation="18,0"
       id="guide4138" />
    <sodipodi:guide
       position="2,2.0000174"
       orientation="0,18"
       id="guide4140" />
    <sodipodi:guide
       position="20,2.0000174"
       orientation="-18,0"
       id="guide4142" />
    <sodipodi:guide
       position="20,20.000017"
       orientation="0,-18"
       id="guide4144" />
    <sodipodi:guide
       position="3,3.0000174"
       orientation="0,16"
       id="guide4148" />
    <sodipodi:guide
       position="19,19.000017"
       orientation="0,-16"
       id="guide4152" />
    <sodipodi:guide
       position="3,15"
       orientation="1,0"
       id="guide4484" />
  </sodipodi:namedview>
  <metadata
     id="metadata3874">
    <rdf:RDF>
      <cc:Work
         rdf:about="">
        <dc:format>image/svg+xml</dc:format>
        <dc:type
           rdf:resource="http://purl.org/dc/dcmitype/StillImage" />
        <dc:title />
      </cc:Work>
    </rdf:RDF>
  </metadata>
  <g
     inkscape:label="Capa 1"
     inkscape:groupmode="layer"
     id="layer1"
     transform="translate(-326,-534.3622)">
    <g
       transform="translate(-30.215497,14.558443)"
       id="layer1-286"
       inkscape:label="Capa 1">
      <g
         transform="translate(27.682101,0.12839698)"
         id="g4369">
        <g
           transform="translate(22.659906,-5.9301729)"
           id="g4382-1" />
        <g
           transform="matrix(0.97603016,0,0,-0.97603016,8.9380976,1042.0695)"
           id="g4486-5">
          <g
             id="g4196"
             transform="translate(-1.0245585,-1.0245243)"
             style="fill:#ffffff;fill-opacity:1">
            <g
               id="g4830"
               transform="translate(0,2.1929912e-5)"
               style="fill:#ffffff;fill-opacity:1">
              <g
                 inkscape:label="Capa 1"
                 id="layer1-2"
                 transform="matrix(1.0245585,0,0,-1.0245585,-5.5374294,1083.7332)"
                 style="fill:#ffffff;fill-opacity:1">
                <g
                   transform="matrix(1.3409571,0,0,1.3409571,-483.62356,-163.95726)"
                   id="layer1-9-1"
                   inkscape:label="Capa 1"
                   style="fill:#ffffff;fill-opacity:1">
                  <g
                     id="g3"
                     transform="matrix(0.01949637,0,0,0.01949637,606.00265,522.99918)"
                     style="fill:#ffffff;fill-opacity:1">
                    <g
                       id="web_-_browser_tab"
                       style="fill:#ffffff;fill-opacity:1">
                      <g
                         id="g6"
                         style="fill:#ffffff;fill-opacity:1">
                        <path
                           style="fill:#ffffff;fill-opacity:1"
                           d="m 191.25002,5.9e-5 c -21.114,0 -38.24999,17.135993 -38.24999,38.249993 l 0,38.249993 38.24999,0 0,-19.124996 c 0,-10.557002 8.568,-19.124997 19.125,-19.124997 l 344.24994,0 c 10.557,0 19.12499,8.567995 19.12499,19.124997 l 0,344.249941 c 0,10.55699 -8.56799,19.12499 -19.12499,19.12499 l -19.125,0 0,38.25 38.24999,0 c 21.114,0 38.25,-17.136 38.25,-38.25 l 0,-382.499928 c 0,-21.114 -17.136,-38.249993 -38.25,-38.249993 l -382.49993,0 z"
                           id="path4289" />
                        <path
                           style="fill:#ffffff;fill-opacity:1"
                           d="M 4 6 C 3.4479999 6 3 6.4479999 3 7 L 3 18 C 3 18.552 3.4479999 19 4 19 L 15 19 C 15.552 19 16 18.552 16 18 L 16 7 C 16 6.4479999 15.552 6 15 6 L 4 6 z M 9.3769531 8.7207031 C 9.9196103 8.7207031 10.437794 8.82761 10.933594 9.0390625 C 11.925574 9.4621375 12.642489 10.178343 13.064453 11.162109 C 13.277017 11.657438 13.384766 12.172278 13.384766 12.714844 C 13.384766 13.257514 13.276913 13.778095 13.064453 14.273438 C 12.642398 15.257113 11.925574 15.977303 10.933594 16.400391 C 10.437872 16.611738 9.9195318 16.720703 9.3769531 16.720703 C 8.8343738 16.720703 8.3176077 16.612864 7.8222656 16.400391 C 6.8385899 15.978336 6.1180216 15.258786 5.6953125 14.273438 C 5.4834934 13.779678 5.3808594 13.257514 5.3808594 12.714844 C 5.3808594 12.172278 5.4834934 11.655764 5.6953125 11.162109 C 6.1180216 10.176761 6.8384986 9.4610129 7.8222656 9.0390625 C 8.3175164 8.8265899 8.8343872 8.7207031 9.3769531 8.7207031 z M 9.1289062 10.1875 C 8.9248474 10.1875 8.7578125 10.354534 8.7578125 10.558594 L 8.7578125 13.279297 C 8.7578125 13.396778 8.8138127 13.502285 8.9003906 13.570312 L 10.490234 14.806641 C 10.558261 14.856114 10.63837 14.886719 10.71875 14.886719 C 10.830054 14.886719 10.941739 14.838848 11.009766 14.746094 C 11.133445 14.585312 11.108363 14.350242 10.941406 14.226562 L 9.5 13.099609 L 9.5 10.558594 C 9.5 10.354534 9.3329651 10.1875 9.1289062 10.1875 z "
                           transform="matrix(38.249993,0,0,38.249993,-114.74992,-114.74992)"
                           id="path4287" />
                      </g>
                    </g>
                  </g>
                </g>
              </g>
              <g
                 transform="matrix(1.6,0,0,1.6,-209.75477,-307.25267)"
                 id="g4177"
                 style="fill:#ffffff;fill-opacity:1">
                <g
                   transform="matrix(1.0245585,0,0,-1.0245585,-6.5619915,1082.7087)"
                   id="layer1-4"
                   inkscape:label="Capa 1"
                   style="fill:#ffffff;fill-opacity:1">
                  <g
                     inkscape:label="Capa 1"
                     id="layer1-5"
                     transform="translate(-0.99999575,0.99999972)"
                     style="fill:#ffffff;fill-opacity:1">
                    <g
                       transform="matrix(0.97524152,0,0,0.97524152,-259.54441,29.220778)"
                       id="layer1-9"
                       inkscape:label="Capa 1"
                       style="fill:#ffffff;fill-opacity:1">
                      <g
                         transform="translate(-0.13028837,-0.17561717)"
                         id="g4162"
                         style="fill:#ffffff;fill-opacity:1" />
                    </g>
                  </g>
                </g>
                <g
                   style="fill:#ffffff;fill-opacity:1"
                   inkscape:label="Capa 1"
                   id="layer1-74"
                   transform="matrix(0.21344969,0,0,-0.21344969,256.88337,632.60788)">
                  <g
                     style="fill:#ffffff;fill-opacity:1"
                     transform="matrix(0.52173913,0,0,0.52173913,187.40373,258.51209)"
                     id="layer1-6-5"
                     inkscape:label="Capa 1">
                    <g
                       style="fill:#ffffff;fill-opacity:1"
                       transform="matrix(1.15,0,0,1.15,-61.285728,-78.569705)"
                       id="g4280-9" />
                  </g>
                </g>
              </g>
            </g>
          </g>
          <g
             style="fill:#ffffff;fill-opacity:1;stroke:none"
             inkscape:label="Capa 1"
             id="layer1-6"
             transform="matrix(0.63644685,0,0,-0.63644685,365.84707,1180.0248)" />
          <g
             transform="matrix(0.51227924,0,0,-0.51227924,164.41938,801.56871)"
             id="layer1-1"
             inkscape:label="Capa 1"
             style="fill:#000000;fill-opacity:1">
            <g
               style="fill:#000000;fill-opacity:1;stroke:none"
               inkscape:label="Capa 1"
               id="layer1-35"
               transform="matrix(1.3427307,0,0,1.3427307,337.7703,-854.80506)">
              <g
                 transform="matrix(0.90537551,0,0,0.90537551,-365.91682,562.06022)"
                 id="layer1-0"
                 inkscape:label="Capa 1"
                 style="fill:#000000;fill-opacity:1;stroke:none;stroke-opacity:1" />
              <g
                 style="fill:#000000;fill-opacity:1;stroke:none"
                 transform="translate(-401.01229,510.63371)"
                 id="layer1-00"
                 inkscape:label="Capa 1">
                <g
                   style="fill:#000000;fill-opacity:1;stroke:none"
                   transform="translate(5.05585,-5.251147)"
                   id="layer1-4-3"
                   inkscape:label="Capa 1">
                  <g
                     transform="translate(-8.5913813,6.1981642)"
                     id="layer1-7"
                     inkscape:label="Capa 1"
                     style="fill:#000000;fill-opacity:1;stroke:none" />
                  <g
                     transform="translate(-11.317,5.8824915)"
                     id="layer1-9-3"
                     inkscape:label="Capa 1"
                     style="fill:#000000;fill-opacity:1;stroke:none;stroke-opacity:0.8">
                    <g
                       style="fill:#000000;fill-opacity:1;stroke:none"
                       transform="translate(1.8733025,-0.28410538)"
                       id="layer1-79"
                       inkscape:label="Capa 1">
                      <g
                         style="fill:#000000;fill-opacity:1;stroke:none"
                         transform="translate(-2.0518724,-0.97858527)"
                         id="layer1-2-6"
                         inkscape:label="Capa 1">
                        <g
                           style="fill:#000000;fill-opacity:1;stroke:none"
                           transform="translate(0.22097092,0.44194173)"
                           id="layer1-26"
                           inkscape:label="Capa 1">
                          <g
                             style="fill:#000000;fill-opacity:1;stroke:none"
                             transform="translate(1.3573925,-1.2626907)"
                             id="layer1-46"
                             inkscape:label="Capa 1">
                            <g
                               style="fill:#000000;fill-opacity:1;stroke:none"
                               transform="translate(-0.41037448,-0.59977801)"
                               id="layer1-21"
                               inkscape:label="Capa 1">
                              <g
                                 style="fill:#000000;fill-opacity:1;stroke:none"
                                 transform="matrix(0.7863692,0,0,0.78394543,92.594038,111.881)"
                                 id="g4187">
                                <g
                                   style="fill:#000000;fill-opacity:1;stroke:none"
                                   transform="matrix(1.2716673,0,0,1.275599,-114.25636,-140.42007)"
                                   id="layer1-3"
                                   inkscape:label="Capa 1">
                                <g
                                   style="fill:#000000;fill-opacity:1;stroke:none"
                                   transform="matrix(0.7863692,0,0,0.78394543,93.325829,112.35451)"
                                   id="g4187-5">
                                <g
                                   style="fill:#000000;fill-opacity:1;stroke:none"
                                   transform="matrix(1.2716673,0,0,1.275599,-124.33958,-145.6548)"
                                   id="layer1-73"
                                   inkscape:label="Capa 1">
                                <g
                                   style="fill:#000000;fill-opacity:1;stroke:none"
                                   transform="translate(2.9673242,4.7350927)"
                                   id="layer1-8"
                                   inkscape:label="Capa 1">
                                <g
                                   style="fill:#000000;fill-opacity:1;stroke:none"
                                   transform="translate(0.03156729,-1.894036)"
                                   id="layer1-25"
                                   inkscape:label="Capa 1">
                                <g
                                   style="fill:#000000;fill-opacity:1;stroke:none"
                                   transform="translate(-1.3573925,-0.63134534)"
                                   id="layer1-84"
                                   inkscape:label="Capa 1">
                                <g
                                   transform="matrix(0.7863692,0,0,0.78394543,92.825954,112.35451)"
                                   id="g4187-3"
                                   style="fill:#000000;fill-opacity:1;stroke:none;stroke-opacity:1">
                                <g
                                   style="fill:#000000;fill-opacity:1;stroke:none;stroke-opacity:1"
                                   transform="matrix(-0.01228611,0,0,0.01232408,428.13296,559.84314)"
                                   id="g10822-9-7">
                                <g
                                   style="fill:#000000;fill-opacity:1;stroke:none;stroke-opacity:1"
                                   id="g5043"
                                   transform="matrix(-7.0732846,0,0,7.0017718,2712.2317,-7878.2911)">
                                <g
                                   style="fill:#000000;fill-opacity:1;stroke:none;stroke-opacity:1"
                                   transform="matrix(-0.14221664,0,0,0.14366922,646.51536,1157.0261)"
                                   id="g10822-9-7-7">
                                <g
                                   style="fill:#000000;fill-opacity:1;stroke:none;stroke-opacity:1"
                                   id="g5043-6-8"
                                   transform="matrix(-7.0732846,0,0,7.0017718,2712.2317,-7878.2911)">
                                <g
                                   transform="matrix(0.11770342,0,0,0.11770342,-131.56937,724.00624)"
                                   id="g6727-5"
                                   style="fill:#000000;fill-opacity:1;stroke:none;stroke-opacity:1">
                                <g
                                   style="opacity:0.98999999;fill:#000000;fill-opacity:1;stroke:none;stroke-width:26.21758842;stroke-miterlimit:4;stroke-dasharray:none;stroke-opacity:1"
                                   transform="matrix(2.4074013,0,0,2.4319895,-456.62221,197.91631)"
                                   id="g12632">
                                <g
                                   style="fill:#000000;fill-opacity:1;stroke:none;stroke-width:26.21758842;stroke-miterlimit:4;stroke-dasharray:none;stroke-opacity:1"
                                   id="g12588">
                                <g
                                   style="fill:#000000;fill-opacity:1;stroke:none;stroke-width:26.21758842;stroke-miterlimit:4;stroke-dasharray:none;stroke-opacity:1"
                                   id="g12590" />
                                </g>
                                <g
                                   style="fill:#000000;fill-opacity:1;stroke:none;stroke-width:26.21758842;stroke-miterlimit:4;stroke-dasharray:none;stroke-opacity:1"
                                   id="g12596" />
                                <g
                                   style="fill:#000000;fill-opacity:1;stroke:none;stroke-width:26.21758842;stroke-miterlimit:4;stroke-dasharray:none;stroke-opacity:1"
                                   id="g12598" />
                                <g
                                   style="fill:#000000;fill-opacity:1;stroke:none;stroke-width:26.21758842;stroke-miterlimit:4;stroke-dasharray:none;stroke-opacity:1"
                                   id="g12600" />
                                <g
                                   style="fill:#000000;fill-opacity:1;stroke:none;stroke-width:26.21758842;stroke-miterlimit:4;stroke-dasharray:none;stroke-opacity:1"
                                   id="g12602" />
                                <g
                                   style="fill:#000000;fill-opacity:1;stroke:none;stroke-width:26.21758842;stroke-miterlimit:4;stroke-dasharray:none;stroke-opacity:1"
                                   id="g12604" />
                                <g
                                   style="fill:#000000;fill-opacity:1;stroke:none;stroke-width:26.21758842;stroke-miterlimit:4;stroke-dasharray:none;stroke-opacity:1"
                                   id="g12606" />
                                <g
                                   style="fill:#000000;fill-opacity:1;stroke:none;stroke-width:26.21758842;stroke-miterlimit:4;stroke-dasharray:none;stroke-opacity:1"
                                   id="g12608" />
                                <g
                                   style="fill:#000000;fill-opacity:1;stroke:none;stroke-width:26.21758842;stroke-miterlimit:4;stroke-dasharray:none;stroke-opacity:1"
                                   id="g12610" />
                                <g
                                   style="fill:#000000;fill-opacity:1;stroke:none;stroke-width:26.21758842;stroke-miterlimit:4;stroke-dasharray:none;stroke-opacity:1"
                                   id="g12612" />
                                <g
                                   style="fill:#000000;fill-opacity:1;stroke:none;stroke-width:26.21758842;stroke-miterlimit:4;stroke-dasharray:none;stroke-opacity:1"
                                   id="g12614" />
                                <g
                                   style="fill:#000000;fill-opacity:1;stroke:none;stroke-width:26.21758842;stroke-miterlimit:4;stroke-dasharray:none;stroke-opacity:1"
                                   id="g12616" />
                                <g
                                   style="fill:#000000;fill-opacity:1;stroke:none;stroke-width:26.21758842;stroke-miterlimit:4;stroke-dasharray:none;stroke-opacity:1"
                                   id="g12618" />
                                <g
                                   style="fill:#000000;fill-opacity:1;stroke:none;stroke-width:26.21758842;stroke-miterlimit:4;stroke-dasharray:none;stroke-opacity:1"
                                   id="g12620" />
                                <g
                                   style="fill:#000000;fill-opacity:1;stroke:none;stroke-width:26.21758842;stroke-miterlimit:4;stroke-dasharray:none;stroke-opacity:1"
                                   id="g12622" />
                                <g
                                   style="fill:#000000;fill-opacity:1;stroke:none;stroke-width:26.21758842;stroke-miterlimit:4;stroke-dasharray:none;stroke-opacity:1"
                                   id="g12624" />
                                </g>
                                </g>
                                </g>
                                </g>
                                </g>
                                </g>
                                </g>
                                </g>
                                </g>
                                </g>
                                </g>
                                </g>
                                </g>
                              </g>
                            </g>
                          </g>
                        </g>
                      </g>
                    </g>
                  </g>
                </g>
              </g>
            </g>
            <g
               transform="matrix(0.03250764,0,0,0.03250764,279.46266,537.48801)"
               id="g3-1"
               style="fill:#000000;fill-opacity:1">
              <g
                 id="g5"
                 style="fill:#000000;fill-opacity:1" />
            </g>
          </g>
        </g>
      </g>
    </g>
  </g>
</svg>

<svg xmlns="http://www.w3.org/2000/svg" viewBox="0 0 22 22"><g transform="matrix(.02614 0 0 .02614 3.01 3.01)" fill="#fff"><path d="m191.25 0c-21.11 0-38.25 17.14-38.25 38.25v38.25h38.25v-19.12c0-10.557 8.568-19.12 19.12-19.12h344.25c10.557 0 19.12 8.568 19.12 19.12v344.25c0 10.557-8.568 19.12-19.12 19.12h-19.12v38.25h38.25c21.11 0 38.25-17.14 38.25-38.25v-382.5c0-21.11-17.14-38.25-38.25-38.25h-382.5"/><path d="m4 6c-.552 0-1 .448-1 1v11c0 .552.448 1 1 1h11c.552 0 1-.448 1-1v-11c0-.552-.448-1-1-1h-11m5.377 2.721c.543 0 1.061.107 1.557.318.992.423 1.709 1.139 2.131 2.123.213.495.32 1.01.32 1.553 0 .543-.108 1.063-.32 1.559-.422.984-1.139 1.704-2.131 2.127-.496.211-1.014.32-1.557.32-.543 0-1.059-.108-1.555-.32-.984-.422-1.704-1.142-2.127-2.127-.212-.494-.314-1.016-.314-1.559 0-.543.103-1.059.314-1.553.423-.985 1.143-1.701 2.127-2.123.495-.212 1.012-.318 1.555-.318m-.248 1.467c-.204 0-.371.167-.371.371v2.721c0 .117.056.223.143.291l1.59 1.236c.068.049.148.08.229.08.111 0 .223-.048.291-.141.124-.161.099-.396-.068-.52l-1.441-1.127v-2.541c0-.204-.167-.371-.371-.371" transform="matrix(38.25 0 0 38.25-114.75-114.75)"/></g></svg>
